src/providers/mollie/provider-mollie-640x360.svg

<svg xmlns="http://www.w3.org/2000/svg" width="640" height="360" viewBox="0 0 640 360">
  <g fill-rule="evenodd" transform="translate(80 110)">
    <path fill-rule="nonzero" d="M202.711157 121.154208C187.615433 121.154208 175.377685 108.917736 175.377685 93.823585 175.377685 78.7294341 187.615433 66.4929625 202.711157 66.4929625 217.806882 66.4929625 230.04463 78.7294341 230.04463 93.823585 230.04463 108.917736 217.806882 121.154208 202.711157 121.154208L202.711157 121.154208zM202.711157 47.6603068C177.214599 47.6603068 156.543066 68.3296845 156.543066 93.823585 156.543066 119.317486 177.214599 139.986863 202.711157 139.986863 228.207716 139.986863 248.87925 119.317486 248.87925 93.823585 248.87925 68.3296845 228.207716 47.6603068 202.711157 47.6603068L202.711157 47.6603068zM375.891553 13.9688712C375.891553 21.1551082 370.064984 26.9810702 362.877998 26.9810702 355.691012 26.9810702 349.864442 21.1551082 349.864442 13.9688712 349.864442 6.78263406 355.691012.956672228 362.877998.956672228 370.064984.956672228 375.891553 6.78263406 375.891553 13.9688712M140.646506 88.0015767L140.646506 138.014464 121.626694 138.014464 121.626694 87.3319489C121.552117 75.9427719 112.203379 66.6035162 100.78999 66.5034223 89.1263402 66.4008262 79.5828988 76.2375482 79.5828988 87.9009826L79.5828988 138.014464 60.5630865 138.014464 60.5630865 87.4670758C60.4885088 76.0223461 51.1808134 66.6750833 39.7739312 66.5684833 28.0837539 66.4588805 18.5192909 76.31412 18.5192909 88.0035788L18.5192909 138.014464 0 138.014464 0 87.3319489C0 65.3513423 17.8085505 47.569672 39.7964546 47.569672 51.9841502 47.569672 62.8895099 53.0898471 70.1971221 61.717936 70.2071325 61.7279453 70.1871117 61.7279453 70.1971221 61.717936 77.7349739 52.7975731 89.214432 47.1893154 101.881626 47.5511546 123.564213 48.1712359 140.646506 66.3127435 140.646506 88.0015767"/>
    <polygon fill-rule="nonzero" points="265.276 138.085 284.296 138.085 284.296 3.233 265.276 3.233"/>
    <polygon fill-rule="nonzero" points="309.322 138.085 328.342 138.085 328.342 3.233 309.322 3.233"/>
    <polygon fill-rule="nonzero" points="353.368 138.013 372.388 138.013 372.388 49.93 353.368 49.93"/>
    <path fill-rule="nonzero" d="M435.519515,64.4716676 C448.162686,64.4716676 458.733697,73.3399816 461.35643,85.1910918 L409.682602,85.1910918 C412.305335,73.3399816 422.876347,64.4716676 435.519515,64.4716676 M435.876888,47.5397938 C410.847316,47.8640979 390.634261,68.1085771 390.339454,93.1430466 C390.037639,118.710016 410.910382,139.845831 436.481518,139.862366 C453.382123,139.873357 468.16352,130.803354 476.216409,117.267164 C476.227921,117.248145 476.220413,117.222622 476.199891,117.212612 L460.793843,109.629003 C455.91376,117.706575 447.050527,123.106637 436.924981,123.106637 C423.230715,123.106637 411.844855,113.227376 409.502416,100.205168 L479.99985,100.205168 L479.99985,91.637135 C479.99985,67.3718864 460.142665,47.2249988 435.876888,47.5397938"/>
  </g>
</svg>

<?xml version="1.0" encoding="UTF-8" standalone="no"?>
<svg
   width="640"
   height="360"
   viewBox="0 0 640 360"
   version="1.1"
   id="svg3"
   sodipodi:docname="provider-mollie-640x360.svg"
   inkscape:version="1.4.2 (ebf0e940, 2025-05-08)"
   xmlns:inkscape="http://www.inkscape.org/namespaces/inkscape"
   xmlns:sodipodi="http://sodipodi.sourceforge.net/DTD/sodipodi-0.dtd"
   xmlns="http://www.w3.org/2000/svg"
   xmlns:svg="http://www.w3.org/2000/svg">
  <defs
     id="defs3" />
  <sodipodi:namedview
     id="namedview3"
     pagecolor="#ffffff"
     bordercolor="#111111"
     borderopacity="1"
     inkscape:showpageshadow="0"
     inkscape:pageopacity="0"
     inkscape:pagecheckerboard="1"
     inkscape:deskcolor="#d1d1d1"
     inkscape:zoom="1"
     inkscape:cx="319"
     inkscape:cy="173.5"
     inkscape:window-width="1792"
     inkscape:window-height="998"
     inkscape:window-x="0"
     inkscape:window-y="25"
     inkscape:window-maximized="1"
     inkscape:current-layer="svg3" />
  <g
     fill-rule="evenodd"
     transform="matrix(1.066667,0,0,1.066667,64,104.83009)"
     id="g3">
    <path
       fill-rule="nonzero"
       d="m 202.71116,121.15421 c -15.09573,0 -27.33347,-12.23647 -27.33347,-27.330625 0,-15.094151 12.23774,-27.330622 27.33347,-27.330622 15.09572,0 27.33347,12.236471 27.33347,27.330622 0,15.094155 -12.23775,27.330625 -27.33347,27.330625 z m 0,-73.493903 c -25.49656,0 -46.16809,20.669377 -46.16809,46.163278 0,25.493905 20.67153,46.163275 46.16809,46.163275 25.49656,0 46.16809,-20.66937 46.16809,-46.163275 0,-25.493901 -20.67153,-46.163278 -46.16809,-46.163278 z M 375.89155,13.968871 c 0,7.186237 -5.82657,13.012199 -13.01355,13.012199 -7.18699,0 -13.01356,-5.825962 -13.01356,-13.012199 0,-7.1862369 5.82657,-13.01219877 13.01356,-13.01219877 7.18698,0 13.01355,5.82596187 13.01355,13.01219877 M 140.64651,88.001577 V 138.01446 H 121.62669 V 87.331949 C 121.55212,75.942772 112.20338,66.603516 100.78999,66.503422 89.12634,66.400826 79.582899,76.237548 79.582899,87.900983 V 138.01446 H 60.563086 V 87.467076 C 60.488509,76.022346 51.180813,66.675083 39.773931,66.568483 28.083754,66.458881 18.519291,76.31412 18.519291,88.003579 V 138.01446 H 0 V 87.331949 C 0,65.351342 17.80855,47.569672 39.796455,47.569672 c 12.187695,0 23.093055,5.520175 30.400667,14.148264 0.01001,0.01001 -0.01001,0.01001 0,0 7.537852,-8.920363 19.01731,-14.528621 31.684508,-14.166781 21.68258,0.620081 38.76488,18.761588 38.76488,40.450422"
       id="path1" />
    <polygon
       fill-rule="nonzero"
       points="265.276,3.233 265.276,138.085 284.296,138.085 284.296,3.233 "
       id="polygon1" />
    <polygon
       fill-rule="nonzero"
       points="309.322,3.233 309.322,138.085 328.342,138.085 328.342,3.233 "
       id="polygon2" />
    <polygon
       fill-rule="nonzero"
       points="353.368,49.93 353.368,138.013 372.388,138.013 372.388,49.93 "
       id="polygon3" />
    <path
       fill-rule="nonzero"
       d="m 435.51951,64.471668 c 12.64318,0 23.21419,8.868314 25.83692,20.719424 H 409.6826 c 2.62274,-11.85111 13.19375,-20.719424 25.83691,-20.719424 m 0.35738,-16.931874 c -25.02957,0.324304 -45.24263,20.568783 -45.53744,45.603253 -0.30181,25.566973 20.57093,46.702783 46.14207,46.719323 16.9006,0.011 31.682,-9.05902 39.73489,-22.59521 0.0115,-0.019 0.004,-0.0445 -0.0165,-0.0546 L 460.79384,109.629 c -4.88008,8.07758 -13.74331,13.47764 -23.86886,13.47764 -13.69427,0 -25.08013,-9.87926 -27.42256,-22.90147 h 70.49743 v -8.568035 c 0,-24.265249 -19.85718,-44.412136 -44.12296,-44.097341"
       id="path3" />
  </g>
</svg>
